Adwaita++-Dark/actions/22/twitter-home.svg

<svg height="22" viewBox="0 0 22 22" width="22" xmlns="http://www.w3.org/2000/svg">
  <path d="m8 .75976562-8 7.81054688 1.5234375 1.5566405 1.1425781-.986328.7617188 6.095703h9.1445316l.761718-6.095703 1.142578.953125 1.523438-1.5234375zm0 5.33398438c1.2624 0 2.285156 1.0228563 2.285156 2.2851562 0 1.2624001-1.022856 2.2851558-2.285156 2.2851558-1.2624 0-2.2851562-1.0228558-2.2851562-2.2851558 0-1.2624 1.0228562-2.2851562 2.2851562-2.2851562zm0 6.095703c.42079 0 .7617188.340929.7617188.761719 0 .42078-.3409288.761719-.7617188.761719s-.7617188-.340939-.7617188-.761719c0-.42079.3409288-.761719.7617188-.761719z" fill="#e6ddff" transform="translate(3 3)"/>
</svg>

<svg xmlns="http://www.w3.org/2000/svg" width="22" height="22" viewBox="0 0 22 22">
 <defs>
  <style id="current-color-scheme" type="text/css">
   .ColorScheme-Text { color:#E6DDFF; } .ColorScheme-Highlight { color:#4285f4; }
  </style>
 </defs>
 <path style="fill:currentColor" class="ColorScheme-Text" d="M 8 0.75976562 L 0 8.5703125 L 1.5234375 10.126953 L 2.6660156 9.140625 L 3.4277344 15.236328 L 12.572266 15.236328 L 13.333984 9.140625 L 14.476562 10.09375 L 16 8.5703125 L 8 0.75976562 z M 8 6.09375 C 9.2624 6.09375 10.285156 7.1166063 10.285156 8.3789062 C 10.285156 9.6413063 9.2623 10.664062 8 10.664062 C 6.7376 10.664062 5.7148438 9.6412062 5.7148438 8.3789062 C 5.7148438 7.1165062 6.7377 6.09375 8 6.09375 z M 8 12.189453 C 8.42079 12.189453 8.7617188 12.530382 8.7617188 12.951172 C 8.7617188 13.371952 8.42079 13.712891 8 13.712891 C 7.57921 13.712891 7.2382812 13.371952 7.2382812 12.951172 C 7.2382812 12.530382 7.57921 12.189453 8 12.189453 z" transform="translate(3 3)"/>
</svg>
